docs/assets/body_black.svg

<?xml version="1.0" encoding="utf-8"?>
<!-- Generator: Adobe Illustrator 23.0.1, SVG Export Plug-In . SVG Version: 6.00 Build 0)  -->
<svg version="1.1" id="body" xmlns="http://www.w3.org/2000/svg" xmlns:xlink="http://www.w3.org/1999/xlink" x="0px" y="0px"
	 width="450px" height="378px" viewBox="0 0 450 378" enable-background="new 0 0 450 378" xml:space="preserve">
<path fill="#23160F" d="M239.795,215.669c0,0,24.697-9.081,43.4-9.091c0,0,17.678-13.02,26.314-4.394
	c8.635,8.626,1.617,21.849-1.895,24.766c-3.513,2.917-21.106,2.891-21.106,2.891s-36.561,15.951-51.352,15.959
	c-10.682,0.006-20.474-13.555-20.474-13.555S223.699,210.825,239.795,215.669"/>
<path opacity="0.3" fill="#3E2670" d="M224.039,200.399c0,0-10.775,4.337-10.47,12.504c0.417,11.18,9.23,25.869,21.174,27.138
	c20.749,2.204,47.707-14.585,53.014-14.95c15.384-1.057,21.892-2.333,23.831-12.242c0,0,1.082,10.432-2.026,12.847
	c-3.107,2.415-20.127,3.364-26.727,5.248c-6.6,1.884-34.119,16.5-47.678,14.856c-13.559-1.644-25.577-15.939-28.696-23.345
	c-3.12-7.406-0.911-23.361-0.911-23.361l11.503-1.978L224.039,200.399z"/>
<path opacity="0.4" fill="#FFFFFF" d="M233.662,222.535c0,0,19.558-10.988,51.599-12.081c0,0,9.553-8.939,22.338-8.946
	c0,0,2.528-1.859-9.599-1.853c-12.128,0.007-13.338,7.077-13.338,7.077S248.897,205.727,233.662,222.535"/>
<path fill="#3E2670" d="M311.485,204.673c-0.589-0.091-1.392-0.153-2.116-0.173c-0.746-0.009-1.504-0.004-2.269,0.047
	c-0.761,0.064-1.537,0.127-2.314,0.249c-0.784,0.096-1.562,0.257-2.374,0.387c0.645-0.503,1.339-0.943,2.07-1.325
	c0.729-0.39,1.502-0.693,2.293-0.958c0.795-0.254,1.614-0.459,2.454-0.573c0.859-0.118,1.652-0.194,2.641-0.089
	c0.677,0.072,1.167,0.68,1.095,1.357s-0.68,1.168-1.357,1.096c-0.018-0.002-0.036-0.005-0.053-0.007L311.485,204.673z"/>
<path fill="#3E2670" d="M312.976,210.825c-0.166-0.037-0.544-0.099-0.844-0.117c-0.319-0.036-0.651-0.053-0.985-0.06
	c-0.669-0.013-1.361-0.001-2.054,0.067c-1.4,0.096-2.813,0.361-4.278,0.628c0.294-0.226,0.601-0.436,0.907-0.653
	c0.317-0.191,0.633-0.394,0.96-0.577c0.656-0.361,1.341-0.68,2.053-0.957c0.717-0.252,1.454-0.49,2.226-0.629
	c0.387-0.066,0.778-0.126,1.182-0.154c0.424-0.016,0.771-0.045,1.319,0.035c0.674,0.099,1.14,0.726,1.042,1.4
	c-0.099,0.674-0.726,1.141-1.4,1.042c-0.03-0.004-0.06-0.01-0.089-0.016L312.976,210.825z"/>
<path fill="#3E2670" d="M311.597,218.166c0.144,0.077,0.112,0.053,0.15,0.068c0.033,0.009,0.021,0.004,0.033,0.006
	c0.018,0,0.017-0.005,0.009-0.01c-0.001-0.011-0.042-0.021-0.069-0.034c-0.073-0.022-0.166-0.038-0.272-0.054
	c-0.208-0.034-0.453-0.041-0.703-0.04c-0.507-0.012-1.044,0.056-1.59,0.106c-1.093,0.129-2.209,0.344-3.343,0.555
	c0.913-0.705,1.873-1.345,2.913-1.905c0.524-0.28,1.065-0.527,1.662-0.735c0.303-0.094,0.613-0.182,0.965-0.238
	c0.174-0.031,0.362-0.043,0.569-0.045c0.111,0.004,0.211,0.003,0.347,0.023c0.06,0.007,0.127,0.018,0.213,0.039
	c0.044,0.012,0.067,0.014,0.133,0.038c0.07,0.028,0.071,0.015,0.246,0.109c0.585,0.349,0.776,1.105,0.427,1.69
	C312.938,218.324,312.181,218.515,311.597,218.166"/>
<path fill="#3E2670" d="M214.686,235.881c-0.202,0-0.407-0.028-0.611-0.088c-1.141-0.337-1.795-1.531-1.462-2.673
	c0.069-0.232,7.085-23.225,30.395-20.912c1.185,0.117,2.051,1.174,1.933,2.359c-0.118,1.186-1.167,2.043-2.36,1.933
	c-19.712-1.949-25.587,17.025-25.828,17.834C216.476,235.272,215.616,235.88,214.686,235.881"/>
<path fill="#23160F" d="M160.319,70.681c25.787-5.617,42.997,0.43,57.702,10.723c11.915,8.34,27.62,27.271,36.426,52.936
	c9.301,27.109-7.088,46.792-12.47,51.152c0,0,8.788,11.738,4.938,15.592c-3.85,3.854-16.323,1.808-27.907-4.191
	c0,0-7.302,1.681-18.859,1.958c-9.077,0.218-26.018-5.218-44.255-12.596c-22.066-8.927-44.634-33.51-41.872-64.681
	C116.404,94.681,134.739,76.253,160.319,70.681z"/>
<path opacity="0.4" fill="#FFFFFF" d="M213.241,82.9c0,0,14.738,9.227,28.83,35.311c10.08,18.657,11.413,36.351,10.808,40.778
	c-2.149,15.717-6.965,22.756-6.965,22.756s17.46-14.134,9.888-43.403c-7.573-29.269-36.552-55.445-36.552-55.445L213.241,82.9z"/>
<path fill="#322230" d="M164.021,154.936c7.787,7.915,24.846,47.681,74.801,33.024l3.202-0.002c0,0,8.09,13.037,2.244,16.277
	c-5.846,3.24-27.216-6.608-27.216-6.608s-26.35,6.331-57.754-12.563c-8.572-5.157-28.34-15.574-34.979-25.277
	c-9.865-14.418-9.594-31.401-8.17-28.34C131.468,164.383,158.917,149.748,164.021,154.936z"/>
<path opacity="0.4" fill="#FFFFFF" d="M114.362,129.064c0,0-1.532-32.34,45.447-51.745c17.18-7.096,36.255-5.106,36.255-5.106
	s-38.298-14.809-68.596,18.553C112.025,107.771,114.362,129.064,114.362,129.064z"/>
<path fill="none" stroke="#3E2670" stroke-width="4.5" stroke-linecap="round" stroke-linejoin="round" stroke-miterlimit="10" d="
	M238.957,187.447c0,0,1.447-0.766,3.019-1.955c7.063-5.34,21.771-24.043,12.47-51.152c-8.805-25.665-24.766-44.34-36.681-52.681
	c-14.705-10.293-31.66-16.596-57.447-10.979c-25.58,5.572-43.915,24-46.298,50.894c-1.44,16.253,3.064,30.809,16.851,44.426
	c6.635,6.553,15.767,12.845,23.319,16.766c8.851,4.596,31.66,15.574,43.745,16.255c11.542,0.65,19.234-2.213,19.234-2.213"/>
<path fill="#3E2670" d="M240.06,206.844c-8.435,0.005-20.659-6.164-23.604-7.719c-1.053-0.556-1.457-1.86-0.9-2.914
	c0.555-1.053,1.856-1.457,2.914-0.901c8.131,4.288,21.646,9.304,24.827,6.449c4.775-4.278-3.348-13.657-3.696-14.054
	c-0.785-0.896-0.695-2.259,0.2-3.045c0.896-0.784,2.258-0.695,3.045,0.201c5.23,5.967,9.24,14.815,3.331,20.111
	C244.685,206.309,242.535,206.843,240.06,206.844"/>
<path fill="#3E2670" d="M237.366,247.968c-2.859,0.002-5.459-0.453-7.698-1.509c-19.693-9.292-25.733-22.209-27.332-31.409
	c-1.535-8.828,0.654-16.446,1.689-17.481c0.841-0.842,2.208-0.842,3.05,0.001c0.703,0.703,0.819,1.771,0.348,2.595
	c-0.461,1.264-8.85,26.851,24.086,42.392c8.191,3.867,25.729-3.482,38.533-8.85c6.372-2.669,11.875-4.976,15.96-5.963
	c0.172-0.041,0.341-0.064,0.522-0.06c0.115,0.002,11.503,0.054,19.476-2.416c2.382-0.738,4.074-2.913,4.208-5.41
	c0.052-0.976,0.159-1.954,0.272-2.988c0.311-2.853,0.633-5.803-0.163-9.048c-1.126-4.59-5.622-7.415-10.241-6.43
	c-5.26,1.122-9.38,2.609-14.875,6.888c-0.343,0.268-0.761,0.426-1.197,0.451c-11.177,0.665-41.882,4.353-49.641,13.32
	c-0.779,0.902-2.14,0.999-3.042,0.22c-0.901-0.779-1-2.141-0.22-3.042c9.928-11.474,46.386-14.38,51.981-14.761
	c5.869-4.458,10.536-6.11,16.095-7.295c6.903-1.475,13.643,2.751,15.329,9.621c0.977,3.985,0.598,7.469,0.262,10.543
	c-0.106,0.974-0.206,1.894-0.252,2.752c-0.231,4.292-3.141,8.029-7.24,9.3c-7.995,2.477-18.619,2.607-20.507,2.61
	c-3.746,0.946-9.245,3.251-15.059,5.687C260.051,242.572,247.188,247.963,237.366,247.968 M207.078,200.617
	c-0.001,0.001-0.002,0.002-0.003,0.003C207.076,200.619,207.077,200.618,207.078,200.617 M207.083,200.612
	c-0.001,0.001-0.002,0.002-0.003,0.003C207.081,200.614,207.082,200.613,207.083,200.612"/>
<path fill="#23160F" d="M256.841,179.723c0,0,12.838-14.054,14.036-27.825c0,0-8.025-14.99-5.103-17.916
	c2.922-2.925,7.415,1.897,7.415,1.897s2.888-14.845,13.106-13.7c10.218,1.144,19.831,16.905,8.41,33.371
	c0,0-12.049,37.68-21.152,42.583C273.552,198.133,260.284,192.343,256.841,179.723"/>
<path opacity="0.4" fill="#FFFFFF" d="M278.239,125.35c0,0,11.804-0.387,16.431,9.89c3.15,6.994-2.873,18.972-4.855,20.956
	c-1.982,1.985-9.838,22.603-13.194,31.233c-1.598,4.11-7.926,15.972-7.926,15.972s13.475-12.278,17.78-27.482
	c4.306-15.204,7.64-18.577,7.64-18.577s7.928-15.121,4.65-22.207c-3.277-7.085-5.638-13.903-12.47-12.955
	C279.462,123.128,278.239,125.35,278.239,125.35"/>
<path fill="#3E2670" d="M290.071,125.014c-0.086,1.408-0.312,2.662-0.623,3.95c-0.299,1.276-0.673,2.53-1.125,3.752
	c-0.468,1.218-0.949,2.425-1.566,3.57c-0.594,1.154-1.315,2.245-2.131,3.26c0.287-1.277,0.632-2.5,0.949-3.723
	c0.334-1.215,0.644-2.429,0.914-3.646c0.274-1.217,0.498-2.439,0.697-3.658c0.176-1.208,0.345-2.475,0.422-3.607l0.004-0.057
	c0.046-0.679,0.634-1.192,1.313-1.145C289.601,123.756,290.112,124.339,290.071,125.014"/>
<path fill="#3E2670" d="M295.328,128.864c-0.119,1.258-0.347,2.387-0.661,3.541c-0.297,1.146-0.677,2.268-1.125,3.359
	c-0.454,1.09-0.951,2.161-1.569,3.166c-0.594,1.015-1.338,1.947-2.166,2.783c0.323-1.142,0.691-2.216,1.009-3.304
	c0.332-1.079,0.656-2.15,0.908-3.239c0.269-1.083,0.497-2.173,0.692-3.263c0.178-1.082,0.349-2.213,0.454-3.234l0.005-0.051
	c0.07-0.677,0.675-1.169,1.352-1.099C294.901,127.592,295.391,128.191,295.328,128.864"/>
<path opacity="0.3" fill="#3E2670" d="M274.233,132.298c0,0,7.409,12.101,17.723,9.414c0,0-8.062,9.762-16.901-0.505
	C270.082,135.431,274.233,132.298,274.233,132.298"/>
<path opacity="0.3" fill="#3E2670" d="M272.617,149.633c0,0,5.115,4.515,10.662,3.69c0,0-4.313,2.673-12.226,0.337L272.617,149.633z
	"/>
<path fill="#3E2670" d="M285.802,122.454c-0.36,1.275-0.753,2.53-1.187,3.778c-0.418,1.251-0.866,2.493-1.334,3.728
	c-0.946,2.466-1.92,4.928-3.327,7.23c0.276-2.681,0.899-5.231,1.5-7.792c0.613-2.555,1.255-5.105,1.977-7.618
	c0.187-0.655,0.869-1.033,1.524-0.846C285.609,121.121,285.989,121.799,285.802,122.454"/>
<path fill="#3E2670" d="M265.903,206.87c-0.815,0-1.595-0.463-1.96-1.251c-0.501-1.081-0.03-2.363,1.051-2.864
	c0.069-0.033,7.735-3.744,13.543-14.375c3.523-6.448,11.937-29.998,12.021-30.235c0.063-0.176,0.149-0.344,0.255-0.498
	c9.732-14.137,6.63-23.089,3.915-27.166c-3.068-4.608-8.105-6.801-11.03-6.189c-6.535,1.372-8.363,11.819-8.379,11.925
	c-0.128,0.809-0.703,1.475-1.484,1.72c-0.78,0.247-1.634,0.029-2.202-0.563c-0.86-0.885-2.573-2.139-3.679-2.147
	c-0.255,0.026-0.448,0.074-0.655,0.28c-1.287,1.288,1.425,8.17,5.579,14.161c0.338,0.488,0.46,1.093,0.339,1.673
	c-0.157,0.742-3.917,18.276-12.273,27.008c-4.162,4.349-13.944,7.534-16.842,8.407c-1.143,0.343-2.344-0.304-2.688-1.443
	c-0.343-1.141,0.303-2.344,1.444-2.688c5.198-1.564,12.238-4.404,14.969-7.258c6.513-6.806,10.108-20.448,10.966-24.034
	c-2.774-4.152-8.916-14.5-4.545-18.874c1.008-1.011,2.286-1.545,3.694-1.546c0.019,0,0.038,0,0.057,0
	c1.409,0.014,2.769,0.57,3.895,1.236c1.296-4.129,4.355-10.701,10.919-12.078c5.076-1.071,11.75,2.379,15.505,8.019
	c3.304,4.962,7.183,15.669-3.791,31.769c-0.991,2.767-8.686,24.149-12.204,30.59c-6.533,11.956-15.153,16.052-15.516,16.22
	C266.514,206.805,266.206,206.87,265.903,206.87"/>
<path fill="#3E2670" d="M273.552,200.291c-0.267,0-0.537-0.05-0.8-0.155c-12.347-4.926-18.174-19.503-18.415-20.121
	c-0.435-1.109,0.113-2.361,1.222-2.794c1.109-0.434,2.36,0.112,2.795,1.22c0.07,0.178,5.423,13.469,15.997,17.689
	c1.106,0.441,1.646,1.696,1.204,2.802C275.218,199.776,274.409,200.291,273.552,200.291"/>
<path fill="#3E2670" d="M268.193,209.809c-0.671,0-1.332-0.311-1.754-0.898c-7.576-10.535-22.557-20.951-24.24-22.104
	c-0.983-0.674-1.234-2.016-0.561-2.999c0.674-0.984,2.016-1.235,2.999-0.561c2.85,1.953,17.466,12.245,25.305,23.146
	c0.695,0.967,0.475,2.315-0.492,3.01C269.069,209.677,268.629,209.809,268.193,209.809"/>
<path opacity="0.3" fill="#3E2670" d="M264.938,168.602c0,0-2.381,23.675,2.189,35.431c0,0-12.554-14.117-22.588-18.226
	C244.539,185.807,259.752,180.926,264.938,168.602"/>
</svg>

<svg width="450" height="378" viewBox="0 0 450 378" fill="none" xmlns="http://www.w3.org/2000/svg">
<path d="M239.795 215.669C239.795 215.669 264.492 206.588 283.195 206.578C283.195 206.578 300.873 193.558 309.509 202.184C318.144 210.81 311.126 224.033 307.614 226.95C304.101 229.867 286.508 229.841 286.508 229.841C286.508 229.841 249.947 245.792 235.156 245.8C224.474 245.806 214.682 232.245 214.682 232.245C214.682 232.245 223.699 210.825 239.795 215.669Z" fill="#472C1D"/>
<path opacity="0.3" d="M224.039 200.399C224.039 200.399 213.264 204.736 213.569 212.903C213.986 224.083 222.799 238.772 234.743 240.041C255.492 242.245 282.45 225.456 287.757 225.091C303.141 224.034 309.649 222.758 311.588 212.849C311.588 212.849 312.67 223.281 309.562 225.696C306.455 228.111 289.435 229.06 282.835 230.944C276.235 232.828 248.716 247.444 235.157 245.8C221.598 244.156 209.58 229.861 206.461 222.455C203.341 215.049 205.55 199.094 205.55 199.094L217.053 197.116L224.039 200.399Z" fill="#3E2670"/>
<path opacity="0.4" d="M233.662 222.535C233.662 222.535 253.22 211.547 285.261 210.454C285.261 210.454 294.814 201.515 307.599 201.508C307.599 201.508 310.127 199.649 298 199.655C285.872 199.662 284.662 206.732 284.662 206.732C284.662 206.732 248.897 205.727 233.662 222.535Z" fill="white"/>
<path d="M311.485 204.673C310.896 204.582 310.093 204.52 309.369 204.5C308.623 204.491 307.865 204.496 307.1 204.547C306.339 204.611 305.563 204.674 304.786 204.796C304.002 204.892 303.224 205.053 302.412 205.183C303.057 204.68 303.751 204.24 304.482 203.858C305.211 203.468 305.984 203.165 306.775 202.9C307.57 202.646 308.389 202.441 309.229 202.327C310.088 202.209 310.881 202.133 311.87 202.238C312.547 202.31 313.037 202.918 312.965 203.595C312.893 204.272 312.285 204.763 311.608 204.691C311.59 204.689 311.572 204.686 311.555 204.684L311.485 204.673Z" fill="#3E2670"/>
<path d="M312.976 210.825C312.81 210.788 312.432 210.726 312.132 210.708C311.813 210.672 311.481 210.655 311.147 210.648C310.478 210.635 309.786 210.647 309.093 210.715C307.693 210.811 306.28 211.076 304.815 211.343C305.109 211.117 305.416 210.907 305.722 210.69C306.039 210.499 306.355 210.296 306.682 210.113C307.338 209.752 308.023 209.433 308.735 209.156C309.452 208.904 310.189 208.666 310.961 208.527C311.348 208.461 311.739 208.401 312.143 208.373C312.567 208.357 312.914 208.328 313.462 208.408C314.136 208.507 314.602 209.134 314.504 209.808C314.405 210.482 313.778 210.949 313.104 210.85C313.074 210.846 313.044 210.84 313.015 210.834L312.976 210.825Z" fill="#3E2670"/>
<path d="M311.597 218.166C311.741 218.243 311.709 218.219 311.747 218.234C311.78 218.243 311.768 218.238 311.78 218.24C311.798 218.24 311.797 218.235 311.789 218.23C311.788 218.219 311.747 218.209 311.72 218.196C311.647 218.174 311.554 218.158 311.448 218.142C311.24 218.108 310.995 218.101 310.745 218.102C310.238 218.09 309.701 218.158 309.155 218.208C308.062 218.337 306.946 218.552 305.812 218.763C306.725 218.058 307.685 217.418 308.725 216.858C309.249 216.578 309.79 216.331 310.387 216.123C310.69 216.029 311 215.941 311.352 215.885C311.526 215.854 311.714 215.842 311.921 215.84C312.032 215.844 312.132 215.843 312.268 215.863C312.328 215.87 312.395 215.881 312.481 215.902C312.525 215.914 312.548 215.916 312.614 215.94C312.684 215.968 312.685 215.955 312.86 216.049C313.445 216.398 313.636 217.154 313.287 217.739C312.938 218.324 312.181 218.515 311.597 218.166Z" fill="#3E2670"/>
<path d="M214.686 235.881C214.484 235.881 214.279 235.853 214.075 235.793C212.934 235.456 212.28 234.262 212.613 233.12C212.682 232.888 219.698 209.895 243.008 212.208C244.193 212.325 245.059 213.382 244.941 214.567C244.823 215.753 243.774 216.61 242.581 216.5C222.869 214.551 216.994 233.525 216.753 234.334C216.476 235.272 215.616 235.88 214.686 235.881Z" fill="#3E2670"/>
<path d="M160.319 70.6806C186.106 65.0636 203.316 71.1106 218.021 81.4036C229.936 89.7436 245.641 108.675 254.447 134.34C263.748 161.449 247.359 181.132 241.977 185.492C241.977 185.492 250.765 197.23 246.915 201.084C243.065 204.938 230.592 202.892 219.008 196.893C219.008 196.893 211.706 198.574 200.149 198.851C191.072 199.069 174.237 192.378 156 185C133.934 176.073 111.26 152.745 114.022 121.574C116.404 94.6806 134.739 76.2526 160.319 70.6806Z" fill="#472C1D"/>
<path opacity="0.4" d="M213.241 82.9005C213.241 82.9005 227.979 92.1275 242.071 118.211C252.151 136.868 253.484 154.562 252.879 158.989C250.73 174.706 245.914 181.745 245.914 181.745C245.914 181.745 263.374 167.611 255.802 138.342C248.229 109.073 219.25 82.8975 219.25 82.8975L213.241 82.9005Z" fill="white"/>
<path d="M164.021 154.936C171.808 162.851 188.867 202.617 238.822 187.96L242.024 187.958C242.024 187.958 250.114 200.995 244.268 204.235C238.422 207.475 217.052 197.627 217.052 197.627C217.052 197.627 190.702 203.958 159.298 185.064C150.726 179.907 130.958 169.49 124.319 159.787C114.454 145.369 114.725 128.386 116.149 131.447C131.468 164.383 158.917 149.748 164.021 154.936Z" fill="#322230"/>
<path opacity="0.4" d="M114.362 129.064C114.362 129.064 112.83 96.7237 159.809 77.3187C176.989 70.2227 196.064 72.2127 196.064 72.2127C196.064 72.2127 157.766 57.4037 127.468 90.7657C112.025 107.771 114.362 129.064 114.362 129.064Z" fill="white"/>
<path d="M238.957 187.447C238.957 187.447 240.404 186.681 241.976 185.492C249.039 180.152 263.747 161.449 254.446 134.34C245.641 108.675 229.68 89.9996 217.765 81.6586C203.06 71.3656 186.105 65.0626 160.318 70.6796C134.738 76.2516 116.403 94.6796 114.02 121.574C112.58 137.827 117.084 152.383 130.871 166C137.506 172.553 146.638 178.845 154.19 182.766C163.041 187.362 185.85 198.34 197.935 199.021C209.477 199.671 217.169 196.808 217.169 196.808" stroke="#3E2670" stroke-width="4.5" stroke-miterlimit="10" stroke-linecap="round" stroke-linejoin="round"/>
<path d="M240.06 206.844C231.625 206.849 219.401 200.68 216.456 199.125C215.403 198.569 214.999 197.265 215.556 196.211C216.111 195.158 217.412 194.754 218.47 195.31C226.601 199.598 240.116 204.614 243.297 201.759C248.072 197.481 239.949 188.102 239.601 187.705C238.816 186.809 238.906 185.446 239.801 184.66C240.697 183.876 242.059 183.965 242.846 184.861C248.076 190.828 252.086 199.676 246.177 204.972C244.685 206.309 242.535 206.843 240.06 206.844Z" fill="#3E2670"/>
<path d="M237.366 247.968C234.507 247.97 231.907 247.515 229.668 246.459C209.975 237.167 203.935 224.25 202.336 215.05C200.801 206.222 202.99 198.604 204.025 197.569C204.866 196.727 206.233 196.727 207.075 197.57C207.778 198.273 207.894 199.341 207.423 200.165C206.962 201.429 198.573 227.016 231.509 242.557C239.7 246.424 257.238 239.075 270.042 233.707C276.414 231.038 281.917 228.731 286.002 227.744C286.174 227.703 286.343 227.68 286.524 227.684C286.639 227.686 298.027 227.738 306 225.268C308.382 224.53 310.074 222.355 310.208 219.858C310.26 218.882 310.367 217.904 310.48 216.87C310.791 214.017 311.113 211.067 310.317 207.822C309.191 203.232 304.695 200.407 300.076 201.392C294.816 202.514 290.696 204.001 285.201 208.28C284.858 208.548 284.44 208.706 284.004 208.731C272.827 209.396 242.122 213.084 234.363 222.051C233.584 222.953 232.223 223.05 231.321 222.271C230.42 221.492 230.321 220.13 231.101 219.229C241.029 207.755 277.487 204.849 283.082 204.468C288.951 200.01 293.618 198.358 299.177 197.173C306.08 195.698 312.82 199.924 314.506 206.794C315.483 210.779 315.104 214.263 314.768 217.337C314.662 218.311 314.562 219.231 314.516 220.089C314.285 224.381 311.375 228.118 307.276 229.389C299.281 231.866 288.657 231.996 286.769 231.999C283.023 232.945 277.524 235.25 271.71 237.686C260.051 242.572 247.188 247.963 237.366 247.968Z" fill="#3E2670"/>
<path d="M256.841 179.723C256.841 179.723 269.679 165.669 270.877 151.898C270.877 151.898 262.852 136.908 265.774 133.982C268.696 131.057 273.189 135.879 273.189 135.879C273.189 135.879 276.077 121.034 286.295 122.179C296.513 123.323 306.126 139.084 294.705 155.55C294.705 155.55 282.656 193.23 273.553 198.133C273.553 198.133 260.284 192.343 256.841 179.723Z" fill="#472C1D"/>
<path opacity="0.4" d="M278.239 125.35C278.239 125.35 290.043 124.963 294.67 135.24C297.82 142.234 291.797 154.212 289.815 156.196C287.833 158.181 279.977 178.799 276.621 187.429C275.023 191.539 268.695 203.401 268.695 203.401C268.695 203.401 282.17 191.123 286.475 175.919C290.781 160.715 294.115 157.342 294.115 157.342C294.115 157.342 302.043 142.221 298.765 135.135C295.488 128.05 293.127 121.232 286.295 122.18C279.462 123.128 278.239 125.35 278.239 125.35Z" fill="white"/>
<path d="M290.071 125.014C289.985 126.422 289.759 127.676 289.448 128.964C289.149 130.24 288.775 131.494 288.323 132.716C287.855 133.934 287.374 135.141 286.757 136.286C286.163 137.44 285.442 138.531 284.626 139.546C284.913 138.269 285.258 137.046 285.575 135.823C285.909 134.608 286.219 133.394 286.489 132.177C286.763 130.96 286.987 129.738 287.186 128.519C287.362 127.311 287.531 126.044 287.608 124.912L287.612 124.855C287.658 124.176 288.246 123.663 288.925 123.71C289.601 123.756 290.112 124.339 290.071 125.014Z" fill="#3E2670"/>
<path d="M295.328 128.864C295.209 130.122 294.981 131.251 294.667 132.405C294.37 133.551 293.99 134.673 293.542 135.764C293.088 136.854 292.591 137.925 291.973 138.93C291.379 139.945 290.635 140.877 289.807 141.713C290.13 140.571 290.498 139.497 290.816 138.409C291.148 137.33 291.472 136.259 291.724 135.17C291.993 134.087 292.221 132.997 292.416 131.907C292.594 130.825 292.765 129.694 292.87 128.673L292.875 128.622C292.945 127.945 293.55 127.453 294.227 127.523C294.901 127.592 295.391 128.191 295.328 128.864Z" fill="#3E2670"/>
<path opacity="0.3" d="M274.233 132.298C274.233 132.298 281.642 144.399 291.956 141.712C291.956 141.712 283.894 151.474 275.055 141.207C270.082 135.431 274.233 132.298 274.233 132.298Z" fill="#322230"/>
<path opacity="0.3" d="M272.617 149.633C272.617 149.633 277.732 154.148 283.279 153.323C283.279 153.323 278.966 155.996 271.053 153.66L272.617 149.633Z" fill="#322230"/>
<path d="M285.802 122.454C285.442 123.729 285.049 124.984 284.615 126.232C284.197 127.483 283.749 128.725 283.281 129.96C282.335 132.426 281.361 134.888 279.954 137.19C280.23 134.509 280.853 131.959 281.454 129.398C282.067 126.843 282.709 124.293 283.431 121.78C283.618 121.125 284.3 120.747 284.955 120.934C285.609 121.121 285.989 121.799 285.802 122.454Z" fill="#3E2670"/>
<path d="M265.903 206.87C265.088 206.87 264.308 206.407 263.943 205.619C263.442 204.538 263.913 203.256 264.994 202.755C265.063 202.722 272.729 199.011 278.537 188.38C282.06 181.932 290.474 158.382 290.558 158.145C290.621 157.969 290.707 157.801 290.813 157.647C300.545 143.51 297.443 134.558 294.728 130.481C291.66 125.873 286.623 123.68 283.698 124.292C277.163 125.664 275.335 136.111 275.319 136.217C275.191 137.026 274.616 137.692 273.835 137.937C273.055 138.184 272.201 137.966 271.633 137.374C270.773 136.489 269.06 135.235 267.954 135.227C267.699 135.253 267.506 135.301 267.299 135.507C266.012 136.795 268.724 143.677 272.878 149.668C273.216 150.156 273.338 150.761 273.217 151.341C273.06 152.083 269.3 169.617 260.944 178.349C256.782 182.698 247 185.883 244.102 186.756C242.959 187.099 241.758 186.452 241.414 185.313C241.071 184.172 241.717 182.969 242.858 182.625C248.056 181.061 255.096 178.221 257.827 175.367C264.34 168.561 267.935 154.919 268.793 151.333C266.019 147.181 259.877 136.833 264.248 132.459C265.256 131.448 266.534 130.914 267.942 130.913C267.961 130.913 267.98 130.913 267.999 130.913C269.408 130.927 270.768 131.483 271.894 132.149C273.19 128.02 276.249 121.448 282.813 120.071C287.889 119 294.563 122.45 298.318 128.09C301.622 133.052 305.501 143.759 294.527 159.859C293.536 162.626 285.841 184.008 282.323 190.449C275.79 202.405 267.17 206.501 266.807 206.669C266.514 206.805 266.206 206.87 265.903 206.87Z" fill="#3E2670"/>
<path d="M273.552 200.291C273.285 200.291 273.015 200.241 272.752 200.136C260.405 195.21 254.578 180.633 254.337 180.015C253.902 178.906 254.45 177.654 255.559 177.221C256.668 176.787 257.919 177.333 258.354 178.441C258.424 178.619 263.777 191.91 274.351 196.13C275.457 196.571 275.997 197.826 275.555 198.932C275.218 199.776 274.409 200.291 273.552 200.291Z" fill="#3E2670"/>
<path d="M268.193 209.809C267.522 209.809 266.861 209.498 266.439 208.911C258.863 198.376 243.882 187.96 242.199 186.807C241.216 186.133 240.965 184.791 241.638 183.808C242.312 182.824 243.654 182.573 244.637 183.247C247.487 185.2 262.103 195.492 269.942 206.393C270.637 207.36 270.417 208.708 269.45 209.403C269.069 209.677 268.629 209.809 268.193 209.809Z" fill="#3E2670"/>
<path opacity="0.3" d="M264.938 168.602C264.938 168.602 262.557 192.277 267.127 204.033C267.127 204.033 254.573 189.916 244.539 185.807C244.539 185.807 259.752 180.926 264.938 168.602Z" fill="#322230"/>
</svg>
